!!!!SEGMENT: pl-kk--kk-i-482--009_zieleniewicz-mathias--msza-2ga-benedictus.krn
!!!id: 17xx:1917
!!!COM: Zieleniewicz, Mathias
!!!COM-rism: pe50045913
!!!CDT: <1724->1763
!!!CNT: Polish
!!!OTL: Msza 2ga – Benedictus
!!!PDT: 1724
!!!SMS-siglum: PL-Kk
!!!SMS-shelfmark: Kk.I.482
!!!NIFC-rismID: 1001140324
!!!URL-scan: http://repozytorium.nifc.pl/skany/pl-kk-nut--i-482
!!!ONB-nifc: UWAGA: zakres skanów 0015-0031. Proszę uzupełnić pola !!!SMS dot. partytury i głosów. UWAGA: w zbiorze Msza Isza i Msza 2ga. Części Mszy 2giej: 6. Kyrie, 7. Gloria, 8. Sanctus, 9. Benedictus, 10. Agnus
!!!SMS-variant:
!!!SMS-altvar:
**kern	**text	**kern	**text	**kern	**text	**kern	**text
*part4	*part4	*part3	*part3	*part2	*part2	*part1	*part1
*staff4	*staff4	*staff3	*staff3	*staff2	*staff2	*staff1	*staff1
*I"Basso.	*	*I"Tenore.	*	*I"Alto.	*	*I"Soprano.	*
*I'B	*	*I'T	*	*I'A	*	*I'S	*
*group1	*	*group1	*	*group1	*	*group1	*
*clefF4	*	*clefC4	*	*clefC3	*	*clefC1	*
*k[b-]	*	*k[b-]	*	*k[b-]	*	*k[b-]	*
*F:	*	*F:	*	*F:	*	*F:	*
*M2/2	*	*M2/2	*	*M2/2	*	*M2/2	*
*met(c|)	*	*met(c|)	*	*met(c|)	*	*met(c|)	*
=1	=1	=1	=1	=1	=1	=1	=1
*2\right	*	*2\right	*	*2\right	*	*2\right	*
!LO:TX:b:i:t=Benedictus	!	!LO:TX:b:i:t=Benedictus	!	!LO:TX:b:i:t=Benedictus	!	!LO:TX:b:i:t=Benedi	!
1F	Be-	1c	Be-	2r	.	1a	Be-
.	.	.	.	[2f\	Be-	.	.
=2	=2	=2	=2	=2	=2	=2	=2
2G\	.	2B-\	.	2f\]	.	1b-	-ne-
2G\	-ne-	2G/	-ne-	2e\	-ne-	.	.
=3	=3	=3	=3	=3	=3	=3	=3
2A\	-di-	2c\	-di-	2f\	-di-	2a\	-di-
!LO:TX:t=P:problem:all\right:global	!	!LO:TX:t=P:problem:all\right:global	!	!LO:TX:t=P:problem:all\right:global	!	!LO:TX:t=P:problem:all\right:global	!
4F\	-ctus	4c\	-ctus	4f\	-ctus	4a\	-ctus
4F\	qui	4c\	qui	4f\	qui	4a\	qui
=4	=4	=4	=4	=4	=4	=4	=4
1B-	ve-	1d	ve-	1f	ve-	1b-	ve-
=5	=5	=5	=5	=5	=5	=5	=5
2A\	-nit	2c\	-nit	2f\	-nit	2cc\	-nit
2F\	in	2c\	in	2f\	in	2a\	in
=6	=6	=6	=6	=6	=6	=6	=6
2B-\	no-	2d\	no-	1f	no-	2b-\	no-
2A\	.	2f\	.	.	.	4cc\	-mi-
.	.	.	.	.	.	4cc\	-ne
!LO:LB:g=original	!	!	!	!	!	!	!
=7	=7	=7	=7	=7	=7	=7	=7
2G\	-mi-	2e\	-mi-	2g\	-mi-	2b-\	Do-
2F\	-ne	2f\	-ne	2a\	-ne	2a\	.
!	!	!LO:LB:g=original	!	!	!	!	!
=8	=8	=8	=8	=8	=8	=8	=8
2E\	Do-	2c\	Do-	2e\	Do-	2g\	.
2D\	-mi-	2Bn\	-mi-	2f\	-mi-	2f\	-mi-
!	!	!	!	!LO:LB:g=original	!	!LO:LB:g=original	!
=9	=9	=9	=9	=9	=9	=9	=9
1C	-ni	1c	-ni	1g	-ni	2e/	-ni,
.	.	.	.	.	.	2g\	in
=10	=10	=10	=10	=10	=10	=10	=10
2r	.	2r	.	2r	.	2cc\	no-
2AA/	in	2e\	in	[2a\	in	2cc#X\	.
=11	=11	=11	=11	=11	=11	=11	=11
1D	no-	2f\	no-	2a\]	.	4dd\	.
.	.	.	.	.	.	4d/	-mi-
.	.	[2d\	.	2f\	.	[2a\	-ne
=12	=12	=12	=12	=12	=12	=12	=12
2G\	-mi-	2d\]	.	2.b-\	no-	2a\]	.
2G\	-ne	4e\	-mi-	.	.	[2g\	Do-
.	.	4d\	-ne	4b-\	-mi-	.	.
=13	=13	=13	=13	=13	=13	=13	=13
1A	Do-	2c#X\	Do-	2e\	-ne	2g\]	.
.	.	2d\	.	[2d\	Do-	2f/	.
=14	=14	=14	=14	=14	=14	=14	=14
1AA	-mi-	2.A\	.	2d\]	.	2.e/	.
.	.	.	.	2c#X\	-mi-	.	.
.	.	4A\	mi-	.	.	4e/	-mi-
=15	=15	=15	=15	=15	=15	=15	=15
0D	-ni.	0A	-ni.	0d	-ni.	0f#X	-ni.
=16	=16	=16	=16	=16	=16	=16	=16
!LO:TX:b:i:t=Osanna Da Capo.	!	!LO:TX:b:i:t=Osanna Da Capo.	!	!LO:TX:b:i:t=Osanna Da Capo.	!	!LO:TX:b:i:t=Osanna Da Capo.	!
.	.	.	.	.	.	.	.
==	==	==	==	==	==	==	==
*-	*-	*-	*-	*-	*-	*-	*-
!!!system-decoration: [(g1)]
!!!ENC:Anna Matuszewska
!!!END:2021-02-01
!!!ENC: Andrzej Borzym
!!!END: 2021-01-19
